X:91
T: ES SITZT NE FRAU IM RINGELEIN
N: K2067
O: Europa, Mitteleuropa, Deutschland, Thueringen
R: Kinder - Lied, Reigen, Tanz - Spiel
M: 2/4
L: 1/8
K: G
D | GGBB | AAG
G | BBdd | ccB
B | dde2 | ccd
B | BBc2 | AAB
d | A2Gd | A2G

